SVG_Azure_All/SQL Server Auditing.svg

<?xml version="1.0" encoding="UTF-8" standalone="no"?>
<!-- Generated by Microsoft Visio, SVG Export SQL Server Auditing.svg Page-1 -->

<svg
   xmlns:dc="http://purl.org/dc/elements/1.1/"
   xmlns:cc="http://creativecommons.org/ns#"
   xmlns:rdf="http://www.w3.org/1999/02/22-rdf-syntax-ns#"
   xmlns:svg="http://www.w3.org/2000/svg"
   xmlns="http://www.w3.org/2000/svg"
   xmlns:sodipodi="http://sodipodi.sourceforge.net/DTD/sodipodi-0.dtd"
   xmlns:inkscape="http://www.inkscape.org/namespaces/inkscape"
   width="0.78745711in"
   height="0.78735709in"
   viewBox="0 0 56.69698 56.689998"
   xml:space="preserve"
   class="st8"
   version="1.1"
   id="svg84"
   sodipodi:docname="SQL Server Auditing.svg"
   style="font-size:12px;overflow:visible;color-interpolation-filters:sRGB;fill:none;fill-rule:evenodd;stroke-linecap:square;stroke-miterlimit:3"
   inkscape:version="0.92.5 (2060ec1f9f, 2020-04-08)"><metadata
   id="metadata90"><rdf:RDF><cc:Work
       rdf:about=""><dc:format>image/svg+xml</dc:format><dc:type
         rdf:resource="http://purl.org/dc/dcmitype/StillImage" /></cc:Work></rdf:RDF></metadata><defs
   id="defs88" /><sodipodi:namedview
   pagecolor="#ffffff"
   bordercolor="#666666"
   borderopacity="1"
   objecttolerance="10"
   gridtolerance="10"
   guidetolerance="10"
   inkscape:pageopacity="0"
   inkscape:pageshadow="2"
   inkscape:window-width="640"
   inkscape:window-height="480"
   id="namedview86"
   showgrid="false"
   inkscape:zoom="1.7193066"
   inkscape:cx="37.795072"
   inkscape:cy="23.279613"
   inkscape:window-x="0"
   inkscape:window-y="0"
   inkscape:window-maximized="0"
   inkscape:current-layer="svg84" />
	<style
   type="text/css"
   id="style2">
	<![CDATA[
		.st1 {fill:#777777;stroke:none;stroke-linecap:butt;stroke-width:12.24}
		.st2 {fill:#1e1e1e;stroke:none;stroke-linecap:butt;stroke-width:12.24}
		.st3 {fill:#b8d432;stroke:none;stroke-linecap:butt;stroke-width:12.24}
		.st4 {fill:#59b4d9;stroke:none;stroke-linecap:butt;stroke-width:12.24}
		.st5 {fill:#ffffff;fill-opacity:0.098;stroke:none;stroke-linecap:butt;stroke-width:12.24}
		.st6 {fill:#ffffff;fill-opacity:0.6;stroke:none;stroke-linecap:butt;stroke-width:12.24}
		.st7 {fill:#ffffff;stroke:none;stroke-linecap:butt;stroke-width:12.24}
		.st8 {fill:none;fill-rule:evenodd;font-size:12px;overflow:visible;stroke-linecap:square;stroke-miterlimit:3}
	]]>
	</style>

	<g
   id="g82"
   transform="translate(-12.24016,-12.2443)">
		<title
   id="title4">Page-1</title>
		<g
   id="group1217-1"
   transform="translate(12.24,-34.0157)">
			<title
   id="title6">SQL Server Auditing</title>
			<g
   id="group1218-2">
				<title
   id="title8">Sheet.1218</title>
				<g
   id="shape1219-3">
					<title
   id="title10">Sheet.1219</title>
					<path
   d="m 33.34,100.11 c 0,1.59 -1.25,2.84 -2.84,2.84 H 2.83 C 1.25,102.95 0,101.7 0,100.11 V 49.09 C 0,47.5 1.25,46.26 2.83,46.26 h 27.56 c 1.58,0 2.83,1.24 2.83,2.83 v 51.02 z"
   class="st1"
   id="path12"
   inkscape:connector-curvature="0"
   style="fill:#777777;stroke:none;stroke-width:12.23999977;stroke-linecap:butt" />
				</g>
				<g
   id="shape1220-5"
   transform="translate(4.87559,-22.4504)">
					<title
   id="title15">Sheet.1220</title>
					<path
   d="m 0,99.32 c 0,-2.04 1.59,-3.63 3.63,-3.63 h 16.55 c 2.04,0 3.63,1.59 3.63,3.63 0,2.04 -1.59,3.63 -3.63,3.63 H 3.63 C 1.59,102.95 0,101.36 0,99.32 Z"
   class="st2"
   id="path17"
   inkscape:connector-curvature="0"
   style="fill:#1e1e1e;stroke:none;stroke-width:12.23999977;stroke-linecap:butt" />
				</g>
				<g
   id="shape1221-7"
   transform="translate(6.23622,-23.6976)">
					<title
   id="title20">Sheet.1221</title>
					<circle
   cx="2.3810999"
   cy="100.568"
   class="st3"
   id="ellipse22"
   r="2.3810999"
   style="fill:#b8d432;stroke:none;stroke-width:12.23999977;stroke-linecap:butt" />
				</g>
				<g
   id="shape1222-9"
   transform="translate(4.87559,-33.222)">
					<title
   id="title25">Sheet.1222</title>
					<path
   d="m 0,99.32 c 0,-2.04 1.59,-3.63 3.63,-3.63 h 16.55 c 2.04,0 3.63,1.59 3.63,3.63 0,2.04 -1.59,3.63 -3.63,3.63 H 3.63 C 1.59,102.95 0,101.36 0,99.32 Z"
   class="st2"
   id="path27"
   inkscape:connector-curvature="0"
   style="fill:#1e1e1e;stroke:none;stroke-width:12.23999977;stroke-linecap:butt" />
				</g>
				<g
   id="shape1223-11"
   transform="translate(6.23622,-34.4693)">
					<title
   id="title30">Sheet.1223</title>
					<circle
   cx="2.3810999"
   cy="100.568"
   class="st3"
   id="ellipse32"
   r="2.3810999"
   style="fill:#b8d432;stroke:none;stroke-width:12.23999977;stroke-linecap:butt" />
				</g>
				<g
   id="shape1224-13"
   transform="translate(4.87559,-43.8803)">
					<title
   id="title35">Sheet.1224</title>
					<path
   d="m 0,99.32 c 0,-2.04 1.59,-3.63 3.63,-3.63 h 16.55 c 2.04,0 3.63,1.59 3.63,3.63 0,2.04 -1.59,3.63 -3.63,3.63 H 3.63 C 1.59,102.95 0,101.25 0,99.32 Z"
   class="st2"
   id="path37"
   inkscape:connector-curvature="0"
   style="fill:#1e1e1e;stroke:none;stroke-width:12.23999977;stroke-linecap:butt" />
				</g>
				<g
   id="shape1225-15"
   transform="translate(6.23622,-45.1276)">
					<title
   id="title40">Sheet.1225</title>
					<circle
   cx="2.3810999"
   cy="100.568"
   class="st3"
   id="ellipse42"
   r="2.3810999"
   style="fill:#b8d432;stroke:none;stroke-width:12.23999977;stroke-linecap:butt" />
				</g>
				<g
   id="shape1226-17"
   transform="translate(22.6772)">
					<title
   id="title45">Sheet.1226</title>
					<path
   d="M 32.66,61 H 1.36 C 0.57,61 0,61.56 0,62.36 v 39.23 c 0,0.79 0.57,1.36 1.36,1.36 h 31.3 c 0.79,0 1.36,-0.57 1.36,-1.36 V 62.36 C 34.02,61.56 33.45,61 32.66,61 Z"
   class="st4"
   id="path47"
   inkscape:connector-curvature="0"
   style="fill:#59b4d9;stroke:none;stroke-width:12.23999977;stroke-linecap:butt" />
				</g>
				<g
   id="shape1227-19"
   transform="translate(22.6772)">
					<title
   id="title50">Sheet.1227</title>
					<path
   d="M 1.36,61 C 0.57,61 0,61.56 0,62.36 v 39.23 c 0,0.79 0.57,1.36 1.36,1.36 H 14.4 L 29.71,61 Z"
   class="st5"
   id="path52"
   inkscape:connector-curvature="0"
   style="fill:#ffffff;fill-opacity:0.09800002;stroke:none;stroke-width:12.23999977;stroke-linecap:butt" />
				</g>
				<g
   id="shape1228-21"
   transform="translate(39.9118,-18.4819)">
					<title
   id="title55">Sheet.1228</title>
					<rect
   x="0"
   y="100.681"
   width="11.3386"
   height="2.26772"
   class="st6"
   id="rect57"
   style="fill:#ffffff;fill-opacity:0.6;stroke:none;stroke-width:12.23999977;stroke-linecap:butt" />
				</g>
				<g
   id="shape1229-23"
   transform="translate(27.2126,-16.3276)">
					<title
   id="title60">Sheet.1229</title>
					<path
   d="M 0.45,86.96 0.11,86.51 C 0,86.39 0,86.28 0.11,86.17 l 1.14,-1.02 c 0,0 0.11,-0.12 0.22,-0.12 0.12,0 0.12,0 0.23,0.12 l 2.95,3.17 5.1,-6.46 c 0,-0.11 0.11,-0.11 0.23,-0.11 h 0.11 l 1.14,0.9 c 0,0 0.11,0.12 0.11,0.23 v 0.23 L 4.76,91.5 Z m 0,11.45 -0.34,-0.45 C 0,97.85 0,97.73 0.11,97.62 L 1.25,96.6 c 0,0 0.11,-0.11 0.22,-0.11 0.12,0 0.12,0 0.23,0.11 l 2.95,3.17 5.1,-6.46 c 0,-0.11 0.11,-0.11 0.23,-0.11 h 0.11 l 1.14,0.9 c 0,0 0.11,0.12 0.11,0.23 v 0.23 l -6.58,8.39 z"
   class="st7"
   id="path62"
   inkscape:connector-curvature="0"
   style="fill:#ffffff;stroke:none;stroke-width:12.23999977;stroke-linecap:butt" />
				</g>
				<g
   id="shape1230-25"
   transform="translate(39.9118,-30.0472)">
					<title
   id="title65">Sheet.1230</title>
					<rect
   x="0"
   y="100.681"
   width="11.3386"
   height="2.26772"
   class="st6"
   id="rect67"
   style="fill:#ffffff;fill-opacity:0.6;stroke:none;stroke-width:12.23999977;stroke-linecap:butt" />
				</g>
				<g
   id="shape1231-27"
   transform="translate(27.2126,-3.85512)">
					<title
   id="title70">Sheet.1231</title>
					<path
   d="M 0.45,98.41 0.11,97.96 C 0,97.85 0,97.73 0.11,97.62 L 1.25,96.6 c 0,0 0.11,-0.11 0.22,-0.11 0.12,0 0.12,0 0.23,0.11 l 2.95,3.17 5.1,-6.46 c 0,-0.11 0.11,-0.11 0.23,-0.11 h 0.11 l 1.14,0.9 c 0,0 0.11,0.12 0.11,0.23 v 0.23 l -6.58,8.39 z"
   class="st7"
   id="path72"
   inkscape:connector-curvature="0"
   style="fill:#ffffff;stroke:none;stroke-width:12.23999977;stroke-linecap:butt" />
				</g>
				<g
   id="shape1232-29"
   transform="translate(39.9118,-6.23622)">
					<title
   id="title75">Sheet.1232</title>
					<rect
   x="0"
   y="100.681"
   width="11.3386"
   height="2.26772"
   class="st6"
   id="rect77"
   style="fill:#ffffff;fill-opacity:0.6;stroke:none;stroke-width:12.23999977;stroke-linecap:butt" />
				</g>
			</g>
		</g>
	</g>
</svg>

<?xml version="1.0" encoding="UTF-8" standalone="no"?>
<!DOCTYPE svg PUBLIC "-//W3C//DTD SVG 1.1//EN" "http://www.w3.org/Graphics/SVG/1.1/DTD/svg11.dtd">
<!-- Generated by Microsoft Visio, SVG Export SQL Server Auditing.svg Page-1 -->
<svg xmlns="http://www.w3.org/2000/svg" xmlns:xlink="http://www.w3.org/1999/xlink" xmlns:ev="http://www.w3.org/2001/xml-events"
		width="1.1274in" height="1.42984in" viewBox="0 0 81.1729 102.949" xml:space="preserve" color-interpolation-filters="sRGB"
		class="st8">
	<style type="text/css">
	<![CDATA[
		.st1 {fill:#777777;stroke:none;stroke-linecap:butt;stroke-width:12.24}
		.st2 {fill:#1e1e1e;stroke:none;stroke-linecap:butt;stroke-width:12.24}
		.st3 {fill:#b8d432;stroke:none;stroke-linecap:butt;stroke-width:12.24}
		.st4 {fill:#59b4d9;stroke:none;stroke-linecap:butt;stroke-width:12.24}
		.st5 {fill:#ffffff;fill-opacity:0.098;stroke:none;stroke-linecap:butt;stroke-width:12.24}
		.st6 {fill:#ffffff;fill-opacity:0.6;stroke:none;stroke-linecap:butt;stroke-width:12.24}
		.st7 {fill:#ffffff;stroke:none;stroke-linecap:butt;stroke-width:12.24}
		.st8 {fill:none;fill-rule:evenodd;font-size:12px;overflow:visible;stroke-linecap:square;stroke-miterlimit:3}
	]]>
	</style>

	<g>
		<title>Page-1</title>
		<g id="group1202-1" transform="translate(12.24,-34.0157)">
			<title>SQL Server Auditing</title>
			<g id="group1203-2">
				<title>Sheet.1203</title>
				<g id="shape1204-3">
					<title>Sheet.1204</title>
					<path d="M33.34 100.11 C33.34 101.7 32.09 102.95 30.5 102.95 L2.83 102.95 C1.25 102.95 0 101.7 0 100.11 L0 49.09
								 C0 47.5 1.25 46.26 2.83 46.26 L30.39 46.26 C31.97 46.26 33.22 47.5 33.22 49.09 L33.22 100.11 L33.34
								 100.11 Z" class="st1"/>
				</g>
				<g id="shape1205-5" transform="translate(4.87559,-22.4504)">
					<title>Sheet.1205</title>
					<path d="M0 99.32 C0 97.28 1.59 95.69 3.63 95.69 L20.18 95.69 C22.22 95.69 23.81 97.28 23.81 99.32 C23.81 101.36
								 22.22 102.95 20.18 102.95 L3.63 102.95 C1.59 102.95 0 101.36 0 99.32 Z" class="st2"/>
				</g>
				<g id="shape1206-7" transform="translate(6.23622,-23.6976)">
					<title>Sheet.1206</title>
					<ellipse cx="2.3811" cy="100.568" rx="2.3811" ry="2.3811" class="st3"/>
				</g>
				<g id="shape1207-9" transform="translate(4.87559,-33.222)">
					<title>Sheet.1207</title>
					<path d="M0 99.32 C0 97.28 1.59 95.69 3.63 95.69 L20.18 95.69 C22.22 95.69 23.81 97.28 23.81 99.32 C23.81 101.36
								 22.22 102.95 20.18 102.95 L3.63 102.95 C1.59 102.95 0 101.36 0 99.32 Z" class="st2"/>
				</g>
				<g id="shape1208-11" transform="translate(6.23622,-34.4693)">
					<title>Sheet.1208</title>
					<ellipse cx="2.3811" cy="100.568" rx="2.3811" ry="2.3811" class="st3"/>
				</g>
				<g id="shape1209-13" transform="translate(4.87559,-43.8803)">
					<title>Sheet.1209</title>
					<path d="M0 99.32 C0 97.28 1.59 95.69 3.63 95.69 L20.18 95.69 C22.22 95.69 23.81 97.28 23.81 99.32 C23.81 101.36
								 22.22 102.95 20.18 102.95 L3.63 102.95 C1.59 102.95 0 101.25 0 99.32 Z" class="st2"/>
				</g>
				<g id="shape1210-15" transform="translate(6.23622,-45.1276)">
					<title>Sheet.1210</title>
					<ellipse cx="2.3811" cy="100.568" rx="2.3811" ry="2.3811" class="st3"/>
				</g>
				<g id="shape1211-17" transform="translate(22.6772,0)">
					<title>Sheet.1211</title>
					<path d="M32.66 61 L1.36 61 C0.57 61 0 61.56 0 62.36 L0 101.59 C0 102.38 0.57 102.95 1.36 102.95 L32.66 102.95
								 C33.45 102.95 34.02 102.38 34.02 101.59 L34.02 62.36 C34.02 61.56 33.45 61 32.66 61 Z" class="st4"/>
				</g>
				<g id="shape1212-19" transform="translate(22.6772,0)">
					<title>Sheet.1212</title>
					<path d="M1.36 61 C0.57 61 0 61.56 0 62.36 L0 101.59 C0 102.38 0.57 102.95 1.36 102.95 L14.4 102.95 L29.71 61
								 L1.36 61 Z" class="st5"/>
				</g>
				<g id="shape1213-21" transform="translate(39.9118,-18.4819)">
					<title>Sheet.1213</title>
					<rect x="0" y="100.681" width="11.3386" height="2.26772" class="st6"/>
				</g>
				<g id="shape1214-23" transform="translate(27.2126,-16.3276)">
					<title>Sheet.1214</title>
					<path d="M0.45 86.96 L0.11 86.51 C0 86.39 0 86.28 0.11 86.17 L1.25 85.15 C1.25 85.15 1.36 85.03 1.47 85.03 C1.59
								 85.03 1.59 85.03 1.7 85.15 L4.65 88.32 L9.75 81.86 C9.75 81.75 9.86 81.75 9.98 81.75 L10.09 81.75
								 L11.23 82.65 C11.23 82.65 11.34 82.77 11.34 82.88 L11.34 83.11 L4.76 91.5 L0.45 86.96 ZM0.45 98.41
								 L0.11 97.96 C0 97.85 0 97.73 0.11 97.62 L1.25 96.6 C1.25 96.6 1.36 96.49 1.47 96.49 C1.59 96.49
								 1.59 96.49 1.7 96.6 L4.65 99.77 L9.75 93.31 C9.75 93.2 9.86 93.2 9.98 93.2 L10.09 93.2 L11.23 94.1
								 C11.23 94.1 11.34 94.22 11.34 94.33 L11.34 94.56 L4.76 102.95 L0.45 98.41 Z" class="st7"/>
				</g>
				<g id="shape1215-25" transform="translate(39.9118,-30.0472)">
					<title>Sheet.1215</title>
					<rect x="0" y="100.681" width="11.3386" height="2.26772" class="st6"/>
				</g>
				<g id="shape1216-27" transform="translate(27.2126,-3.85512)">
					<title>Sheet.1216</title>
					<path d="M0.45 98.41 L0.11 97.96 C0 97.85 0 97.73 0.11 97.62 L1.25 96.6 C1.25 96.6 1.36 96.49 1.47 96.49 C1.59
								 96.49 1.59 96.49 1.7 96.6 L4.65 99.77 L9.75 93.31 C9.75 93.2 9.86 93.2 9.98 93.2 L10.09 93.2 L11.23
								 94.1 C11.23 94.1 11.34 94.22 11.34 94.33 L11.34 94.56 L4.76 102.95 L0.45 98.41 Z" class="st7"/>
				</g>
				<g id="shape1217-29" transform="translate(39.9118,-6.23622)">
					<title>Sheet.1217</title>
					<rect x="0" y="100.681" width="11.3386" height="2.26772" class="st6"/>
				</g>
			</g>
		</g>
	</g>
</svg>
